X:44
T:Padraig O'Keeffes
R:slide
H:First part cf. John O'Connor, Carolan#19
D:Maire O'Keefe
Z:id:hn-slide-44
M:6/8
K:G
G2G FED|DEF G2A|B2G BcA|ABG BcA|Bcd EFG|ABG FED|EFG AFD|G3 G2D:|
|:G2G GBd|e2f g2e|dBG GBd|e2f g2e|dBG cBA|dBG FED|EFG AFD|G3 G2D:|
<end>
<start>
